!!!!SEGMENT: pl-cz--i-155--006-001_anonim-partia-es.krn
!!!id: 18xx:2512
!!!COM: Anonim
!!!OTL: Partia Es
!!!PDT:
!!!SMS-siglum: PL-CZ
!!!SMS-shelfmark: I-155
!!!NIFC-rismID: 1001012514
!!!URL-scan: http://repozytorium.nifc.pl/skany/pl-cz-nut--i-155
!!!ONB-nifc: UWAGA: Parthia 6 (006), części: 1. bez tempa, 2. Adagio, 3. Menuetto, 4. Allegro presto. Skan: 12, 24, 36, 46, 54
!!!SMS-variant:
!!!SMS-altvar:
**kern	**dynam	**kern	**dynam	**kern	**dynam	**kern	**dynam	**kern	**dynam
*part5	*part5	*part4	*part4	*part3	*part3	*part2	*part2	*part1	*part1
*staff5	*	*staff4	*	*staff3	*	*staff2	*	*staff1	*
*I"Corno Secondo	*	*I"Corno Primo.	*	*I"Fagotto	*	*I"Clarinetto Secondo	*	*I"Clainetto Primo	*
*I'cor II in D#	*	*I'cor I in D#	*	*I'fag	*	*I'cl II in B♭	*	*I'cl I in B♭	*
*clefG2	*	*clefG2	*	*clefF4	*	*clefG2	*	*clefG2	*
*ITrd5c9	*	*ITrd5c9	*	*	*	*ITrd1c2	*	*ITrd1c2	*
*k[b-e-a-]	*	*k[b-e-a-]	*	*k[b-e-a-]	*	*k[b-e-a-]	*	*k[b-e-a-]	*
*>[A,A,B,B]	*	*>[A,A,B,B]	*	*>[A,A,B,B]	*	*>[A,A,B,B]	*	*>[A,A,B,B]	*
*M2/2	*	*M2/2	*	*M2/2	*	*M2/2	*	*M2/2	*
*met(c|)	*	*met(c|)	*	*met(c|)	*	*met(c|)	*	*met(c|)	*
=1	=1	=1	=1	=1	=1	=1	=1	=1	=1
*>A	*	*>A	*	*>A	*	*>A	*	*>A	*
*all\right	*	*all\right	*	*all\right	*	*all\right	*	*all\right	*
!LO:TX:a:t=in Dis	!	!LO:TX:a:t=in Dis	!	!LO:TX:t=P:problem:kolejność znaków: BB- E- A-	!	!	!	!LO:TX:t=P:problem:all\middle or right:global	!
!LO:TX:t=P:problem:partia zapisana in Es	!	!LO:TX:t=P:problem:partia zapisana in Es	!LO:DY:t=for	!	!	!	!LO:DY:rj:t=f.	!	!
4E-/	.	4e-\	f	4E-\	.	4e-/	f	4ee-\	f
4G/	.	4g\	.	4G\	f	4g/	.	4gg\	.
4B-/	.	4b-\	.	4B-\	.	4b-/	.	4bb-\	.
4G/	.	4g\	.	4G\	.	4g/	.	4gg\	.
=2	=2	=2	=2	=2	=2	=2	=2	=2	=2
!	!LO:DY:rj	!	!	!	!	!	!LO:DY:rj	!	!
[1E-/	p	[<1e-/	p	4E-\	.	1e-/	p	4ee-\	.
.	.	.	.	(4e-\	p	.	.	4r	.
.	.	.	.	4d\	.	.	.	2r	.
.	.	.	.	4c\)	.	.	.	.	.
=3	=3	=3	=3	=3	=3	=3	=3	=3	=3
1E-/_	.	1e-/_<	.	4B-\|	.	1e-/	.	4r	p
.	.	.	.	(4c\	.	.	.	(4ee-\	.
.	.	.	.	4B-\	.	.	.	4dd\)	.
.	.	.	.	4A-\)	.	.	.	4cc\|	.
=4	=4	=4	=4	=4	=4	=4	=4	=4	=4
1E-/_	.	1e-/]	.	4G\|	.	1e-/	.	4b-\|	.
.	.	.	.	(4A-\	.	.	.	(4cc\	.
.	.	.	.	4G\	.	.	.	4b-\	.
.	.	.	.	4F\)	.	.	.	4a-\)	.
=5	=5	=5	=5	=5	=5	=5	=5	=5	=5
!	!LO:DY:rj:t=f	!	!LO:DY:rj	!	!	!	!LO:DY:rj:t=f	!	!
4E-/]	f	4e-\	f	4E-\	f	4e-/	f	4g/	f
4G/	.	4g\	.	4G\	.	4g/	.	4e-/	.
4B-/	.	4b-\	.	4B-\	.	4b-/	.	4b-/	.
4G/	.	4g\	.	4G\	.	4g/	.	4g/	.
=6	=6	=6	=6	=6	=6	=6	=6	=6	=6
!	!LO:DY:rj	!	!	!	!	!	!	!	!
1E-/	p	[<1e-/	p	[<1E-\	.	4e-/	.	4e-/	.
.	.	.	.	.	.	4r	.	(4ee-\	.
.	.	.	.	.	.	2r	.	4dd\	.
.	.	.	.	.	.	.	.	4cc\)	.
=7	=7	=7	=7	=7	=7	=7	=7	=7	=7
1E-/	.	1e-/_<	.	1E-\_<	.	4r	.	4b-\	.
.	.	.	.	.	.	4e-/	.	(4cc\	.
.	.	.	.	.	.	4d/	.	4b-\	.
.	.	.	.	.	.	4c/	.	4a-\)	.
!	!	!	!	!	!	!	!	!LO:LB:g=original	!
=8	=8	=8	=8	=8	=8	=8	=8	=8	=8
1E-/	.	1e-/_<	.	1E-\_<	.	4B-/	.	4g/	.
.	.	.	.	.	.	4c/	.	(4a-/	.
.	.	.	.	.	.	4B-/	.	4g/	.
.	.	.	.	.	.	4A-/	.	4f/)	.
!	!	!	!	!LO:LB:g=original	!	!	!	!	!
=9	=9	=9	=9	=9	=9	=9	=9	=9	=9
!	!	!	!	!LO:TX:t=P:problem:brak zakończenia ligatury	!	!	!	!	!
1E-/	.	1e-/_<	.	4E-\]	.	4G/	.	2e-/	.
.	.	.	.	4E-\	.	4G/	.	.	.
.	.	.	.	4E-\	.	4G/	.	4.ee-\	.
!	!	!	!	!	!LO:HP:a	!	!	!	!
.	.	.	.	4E-\	<	4G/	.	.	.
.	.	.	.	.	.	.	.	8g/	.
!	!	!	!	!	!	!LO:LB:g=original	!	!	!
=10	=10	=10	=10	=10	=10	=10	=10	=10	=10
1E-/	.	1e-/]	.	4E-\	.	4A-/	.	8g/L	.
.	.	.	.	.	.	.	.	8f/J	.
.	.	.	.	4E-\	.	4A-/	.	4f/	.
.	.	.	.	4E-\	.	4A-/	.	2r	.
.	.	.	.	4E-\	.	4A-/	.	.	.
!LO:LB:g=original	!	!LO:LB:g=original	!	!	!	!	!	!	!
=11	=11	=11	=11	=11	=11	=11	=11	=11	=11
*	*	*	*	*2\right	*	*	*	*	*
*	*	*2\right	*	*tremolo	*	*	*	*	*
!	!	!LO:TX:t=P:problem:2\right:global	!LO:HP:a	!LO:TX:t=P:problem:2\right:global	!	!	!LO:HP:a	!	!
2E-/	.	2e-\	<	8E-\L	.	4B-/	<	2g/	.
.	.	.	.	8E-\	.	.	.	.	.
.	.	.	.	8E-\	.	4B-/	.	.	.
.	.	.	.	8E-\J	.	.	.	.	.
2E-/	.	2e-\	.	8E-\L	.	4B-/	.	4.ee-\	.
.	.	.	.	8E-\	.	.	.	.	.
.	.	.	.	8E-\	.	4B-/	.	.	.
.	.	.	.	8E-\J	.	.	.	8b-\	.
=12	=12	=12	=12	=12	=12	=12	=12	=12	=12
4E-/	.	4e-\	.	8E-\L	.	4c/	.	(8b-\L	.
.	.	.	.	8E-\	.	.	.	8a-\J)	.
4E-/	.	4e-\	.	8E-\	.	4c/	.	4a-\	.
.	.	.	.	8E-\J	.	.	.	.	.
4E-/	.	4e-\	.	8E-\L	.	4c/	.	2r	.
.	.	.	.	8E-\	.	.	.	.	.
4E-/	.	4e-\	.	8E-\	.	4c/	.	.	.
.	.	.	.	8E-\J	.	.	.	.	.
=13	=13	=13	=13	=13	=13	=13	=13	=13	=13
*	*	*	*	*	*	*	*	*2\right	*
4E-/	.	4e-\	.	8E-\L	.	2g/	.	2b-\	.
.	.	.	.	8E-\	.	.	.	.	.
4E-/	.	4e-\	.	8E-\	.	.	.	.	.
.	.	.	.	8E-\J	.	.	.	.	.
4E-/	.	4e-\	.	8E-\L	.	4.g/	.	4.ee-\	.
.	.	.	.	8E-\	.	.	.	.	.
4E-/	.	4e-\	.	8E-\	.	.	.	.	.
.	.	.	.	8E-\J	.	8g/	.	8b-\	.
=14	=14	=14	=14	=14	=14	=14	=14	=14	=14
1E-/	.	1e-/	.	8E-\L	.	4a-/	.	4cc\	.
.	.	.	.	8E-\	.	.	.	.	.
.	.	.	.	8E-\	.	4f/	.	4dd\	.
.	.	.	.	8E-\J	.	.	.	.	.
.	.	.	.	8E-\L	.	4g/	.	4ee-\	.
.	.	.	.	8E-\	.	.	.	.	.
.	.	.	.	8E-\	.	4a-/	.	4ff\	.
.	.	.	.	8E-\J	.	.	.	.	.
*	*	*	*	*Xtremolo	*	*	*	*	*
=15	=15	=15	=15	=15	=15	=15	=15	=15	=15
4E-/	.	4e-\	.	4E-\	.	4b-\	.	4gg\	.
4B-/	.	4b-\	.	4B-\	.	4ee-\	.	4ee-\	.
4G/	.	4g\	.	4G\	.	4ee-\	.	8gg\L	.
.	.	.	.	.	.	.	.	8ee-\	.
4E-/	.	4e-\	.	4E-\	.	4ee-\	.	8gg\	.
.	.	.	.	.	.	.	.	8ee-\J	.
!	!	!	!	!	!	!	!	!LO:LB:g=original	!
=16	=16	=16	=16	=16	=16	=16	=16	=16	=16
*	*	*	*	*	*	*2\right	*	*	*
!	!	!	!	!	!	!LO:TX:t=P:problem:2\right:global	!	!	!
1BB-/	.	1b-\	.	8B-\L	.	2ff\	.	2aa-\	.
.	.	.	.	8d\	.	.	.	.	.
.	.	.	.	8f\	.	.	.	.	.
.	.	.	.	8e-\J	.	.	.	.	.
.	.	.	.	8d\L	.	4b-\	.	2ff\	.
.	.	.	.	8c\	.	.	.	.	.
.	.	.	.	8B-\	.	4dd\	.	.	.
.	.	.	.	8A-\J	.	.	.	.	.
!	!	!	!	!LO:LB:g=original	!	!	!	!	!
=17	=17	=17	=17	=17	=17	=17	=17	=17	=17
4E-/	.	4g\	.	4G\	.	8ee-\L	.	8ee-\L	.
.	.	.	.	.	.	8b-\	.	8gg\	.
4B-/	.	4b-\	.	4r	.	8a-\	.	8ff\	.
.	.	.	.	.	.	8g\J	.	8ee-\J	.
4G/	.	4g\	.	4E-\	.	8f/L	.	(8dd\L	.
.	.	.	.	.	.	8g/	.	8ee-\)	.
4E-/	.	4e-\	.	4r	.	8f/	.	(8dd\	.
.	.	.	.	.	.	8g/J	.	8ee-\J)	.
=18	=18	=18	=18	=18	=18	=18	=18	=18	=18
1BB-/	.	1b-\	.	8B-\L	.	2ff\	.	2aa-\	.
.	.	.	.	8d\	.	.	.	.	.
.	.	.	.	8f\	.	.	.	.	.
.	.	.	.	8e-\J	.	.	.	.	.
.	.	.	.	8d\L	.	4b-\	.	2ff\	.
.	.	.	.	8c\	.	.	.	.	.
.	.	.	.	8B-\	.	4d/	.	.	.
.	.	.	.	8A-\J	.	.	.	.	.
!	!	!	!	!	!	!LO:LB:g=original	!	!	!
=19	=19	=19	=19	=19	=19	=19	=19	=19	=19
4E-/	.	4g\	.	4G\	.	8B-/L	.	4ee-\	.
.	.	.	.	.	.	8e-/	.	.	.
4r	.	4r	.	4E-\	.	8g/	.	8bb-\L	.
.	.	.	.	.	.	8e-/J	.	8gg\J	.
4B-/	.	4f\	.	4D\	.	8B-/L	.	4ff\	.
.	.	.	.	.	.	8d/	.	.	.
4r	.	4r	.	4BB-/	.	8f/	.	4r	.
.	.	.	.	.	.	8d/J	.	.	.
!LO:LB:g=original	!	!	!	!	!	!	!	!	!
=20	=20	=20	=20	=20	=20	=20	=20	=20	=20
4f\	.	4f\	.	4C/	.	8A/L	.	4ee-\	.
.	.	.	.	.	.	8c/	.	.	.
4r	.	4r	.	4C/	.	8f/	.	8gg\L	.
.	.	.	.	.	.	8f/J	.	8ee-\J	.
!	!	!LO:LB:g=original	!	!	!	!	!	!	!
4B-/	.	4b-\	.	4BB-/	.	8B-/L	.	4dd\	.
.	.	.	.	.	.	8d/	.	.	.
4r	.	4r	.	4D/	.	8f/	.	4r	.
.	.	.	.	.	.	8d/J	.	.	.
=21	=21	=21	=21	=21	=21	=21	=21	=21	=21
1r	.	1r	.	4E-\	.	4g/	.	8cc\L	.
.	.	.	.	.	.	.	.	8dd\	.
.	.	.	.	4E-\	.	4g/	.	8ee-\	.
.	.	.	.	.	.	.	.	8ff\J	.
.	.	.	.	4E-\	.	4g/	.	4gg\	.
.	.	.	.	4En\	.	4g/	.	4b-\	.
=22	=22	=22	=22	=22	=22	=22	=22	=22	=22
4f\	.	4f\	.	4F\	.	4f/	.	4a\	.
4f\	.	4f\	.	4FF/	.	4a/	.	4ff\	.
4f\	.	4f\	.	4FF/	.	4a/	.	4ff\	.
4r	.	4r	.	4r	.	4r	.	4r	.
!	!	!	!	!	!	!	!	!LO:LB:g=original	!
=23	=23	=23	=23	=23	=23	=23	=23	=23	=23
*	*	*	*	*	*	*tremolo	*	*	*
00r	.	00r	.	4BB-/	.	8d/L	.	2ff\	.
.	.	.	.	.	.	8f/	.	.	.
.	.	.	.	4r	.	8d/	.	.	.
.	.	.	.	.	.	8f/J	.	.	.
.	.	.	.	4BB-/	.	8d/L	.	8ee-\L	.
.	.	.	.	.	.	8f/	.	8dd\	.
.	.	.	.	4r	.	8d/	.	8cc\	.
.	.	.	.	.	.	8f/J	.	8b-\J	.
=24	=24	=24	=24	=24	=24	=24	=24	=24	=24
.	.	.	.	4C/	.	8e-/L	.	4b-\	.
.	.	.	.	.	.	8f/	.	.	.
.	.	.	.	4r	.	8e-/	.	4a\	.
.	.	.	.	.	.	8f/J	.	.	.
.	.	.	.	4C/	.	8e-/L	.	4a\	.
.	.	.	.	.	.	8f/	.	.	.
.	.	.	.	4r	.	8e-/	.	4r	.
.	.	.	.	.	.	8f/J	.	.	.
!	!	!	!	!LO:LB:g=original	!	!	!	!	!
=25	=25	=25	=25	=25	=25	=25	=25	=25	=25
.	.	.	.	4AAn/	.	8c/L	.	8a\L	.
.	.	.	.	.	.	8f/	.	8b-\	.
.	.	.	.	4r	.	8c/	.	8cc\	.
.	.	.	.	.	.	8f/J	.	8dd\J	.
.	.	.	.	4AA/	.	8c/L	.	8ee-\L	.
.	.	.	.	.	.	8f/	.	8cc\	.
.	.	.	.	4r	.	8c/	.	8gg\	.
.	.	.	.	.	.	8f/J	.	8ee-\J	.
=26	=26	=26	=26	=26	=26	=26	=26	=26	=26
.	.	.	.	4BB-/	.	8d/L	.	4cc#X\	.
.	.	.	.	.	.	8f/	.	.	.
.	.	.	.	4r	.	8d/	.	4dd\	.
.	.	.	.	.	.	8f/J	.	.	.
.	.	.	.	4BB-/	.	8d/L	.	4dd\	.
.	.	.	.	.	.	8f/	.	.	.
.	.	.	.	4r	.	8d/	.	4r	.
.	.	.	.	.	.	8f/J	.	.	.
*	*	*	*	*	*	*Xtremolo	*	*	*
!	!	!	!	!	!	!LO:LB:g=original	!	!	!
=27	=27	=27	=27	=27	=27	=27	=27	=27	=27
*	*	*	*	*tremolo	*	*	*	*	*
!	!	!	!	!	!	!	!	!LO:TX:t=P:problem:t. 27-30 zapisane repetycją	!
00r	.	00r	.	8D\L	.	4B-/	.	2ff\yy	.
.	.	.	.	8F\	.	.	.	.	.
.	.	.	.	8D\	.	4r	.	.	.
.	.	.	.	8F\J	.	.	.	.	.
.	.	.	.	8D\L	.	4B-/	.	8ee-\Lyy	.
.	.	.	.	8F\	.	.	.	8dd\yy	.
.	.	.	.	8D\	.	4r	.	8cc\yy	.
.	.	.	.	8F\J	.	.	.	8b-\Jyy	.
=28	=28	=28	=28	=28	=28	=28	=28	=28	=28
.	.	.	.	8E-\L	.	4c/	.	4b-\yy	.
.	.	.	.	8F\	.	.	.	.	.
.	.	.	.	8E-\	.	4r	.	4a\yy	.
.	.	.	.	8F\J	.	.	.	.	.
.	.	.	.	8E-\L	.	4c/	.	4a\yy	.
.	.	.	.	8F\	.	.	.	.	.
.	.	.	.	8E-\	.	4r	.	4ryy	.
.	.	.	.	8F\J	.	.	.	.	.
=29	=29	=29	=29	=29	=29	=29	=29	=29	=29
.	.	.	.	8C\L	.	4A/	.	8a\Lyy	.
.	.	.	.	8F\	.	.	.	8b-\yy	.
.	.	.	.	8C\	.	4r	.	8cc\yy	.
.	.	.	.	8F\J	.	.	.	8dd\Jyy	.
.	.	.	.	8C\L	.	4A/	.	8ee-\Lyy	.
.	.	.	.	8F\	.	.	.	8cc\yy	.
.	.	.	.	8C\	.	4r	.	8gg\yy	.
.	.	.	.	8F\J	.	.	.	8ee-\Jyy	.
=30	=30	=30	=30	=30	=30	=30	=30	=30	=30
.	.	.	.	8D\L	.	4B-/	.	4cc#X\yy	.
.	.	.	.	8F\	.	.	.	.	.
.	.	.	.	8D\	.	4r	.	4dd\yy	.
.	.	.	.	8F\J	.	.	.	.	.
.	.	.	.	8D\L	.	4B-/	.	4dd\yy	.
.	.	.	.	8F\	.	.	.	.	.
.	.	.	.	8D\	.	4r	.	4ryy	.
.	.	.	.	8F\J	.	.	.	.	.
*	*	*	*	*Xtremolo	*	*	*	*	*
=31	=31	=31	=31	=31	=31	=31	=31	=31	=31
1B-/	.	1b-\	.	4BB-/	.	4dd\	.	4ff\	.
.	.	.	.	4r	.	4dd\	.	8gg\L	.
.	.	.	.	.	.	.	.	8ff\J	.
.	.	.	.	2r	.	2b-\	.	8ee-\L	.
.	.	.	.	.	.	.	.	8dd\	.
.	.	.	.	.	.	.	.	8cc\	.
.	.	.	.	.	.	.	.	8b-\J	.
!	!	!	!	!LO:LB:g=original	!	!	!	!	!
=32	=32	=32	=32	=32	=32	=32	=32	=32	=32
4E-/	.	4g\	.	4E-/	.	4ee-\	.	4gg\	.
4r	.	4r	.	4C/	.	4ee-\	.	4aa\	.
2r	.	2r	.	4D/	.	4dd\	.	4bb-\	.
.	.	.	.	4AAn/	.	8r	.	8r	.
.	.	.	.	.	.	8cc\	.	8ff\	.
!	!	!	!	!	!	!	!	!LO:LB:g=original	!
=33	=33	=33	=33	=33	=33	=33	=33	=33	=33
4B-/	.	4b-\	.	4BB-/	.	8dd\L	.	8ff\L	.
.	.	.	.	.	.	8b-\	.	8dd\	.
4r	.	4r	.	4r	.	8ee-\	.	8gg\	.
.	.	.	.	.	.	8dd\J	.	8ff\J	.
*2\right	*	*	*	*	*	*	*	*	*
2f\	.	2f\	.	4F\	.	8dd\L	.	8ff\L	.
.	.	.	.	.	.	8cc\	.	8ee-\	.
.	.	.	.	4FF/	.	8b-\	.	8dd\	.
.	.	.	.	.	.	8a\J	.	8cc\J	.
=34	=34	=34	=34	=34	=34	=34	=34	=34	=34
4r	.	4r	.	4BB-/	.	4d/	.	4b-\	.
4B-/	.	4b-\	.	4BB-/	.	4r	.	4r	.
4B-/	.	4b-\	.	4BB-/	.	4r	.	4r	.
4r	.	4r	.	4BB-/	.	8dd\L	.	8ff\L	.
.	.	.	.	.	.	8b-\J	.	8dd\J	.
!	!	!	!	!	!	!LO:LB:g=original	!	!	!
=35	=35	=35	=35	=35	=35	=35	=35	=35	=35
1B-/	.	1b-\	.	4BB-/	.	4ee-\	.	4gg\	.
.	.	.	.	4BB-/	.	4cc\	.	4ee-\	.
.	.	.	.	4BB-/	.	4r	.	4r	.
.	.	.	.	4BB-/	.	8dd\L	.	8bb-\L	.
.	.	.	.	.	.	8ee-\J	.	8gg\J	.
=36	=36	=36	=36	=36	=36	=36	=36	=36	=36
2B-/	.	2b-\	.	4BB-/	.	4dd\	.	4ff\	.
.	.	.	.	4BB-/	.	4b-\	.	4dd\	.
4B-/	.	4b-\	.	4BB-/	.	4r	.	4r	.
4r	.	4r	.	4BB-/	.	8dd\L	.	8bb-\L	.
.	.	.	.	.	.	8ee-\J	.	8gg\J	.
!LO:LB:g=original	!	!LO:LB:g=original	!	!	!	!	!	!	!
=37	=37	=37	=37	=37	=37	=37	=37	=37	=37
1r	.	1r	.	2F\	.	4dd\	.	4ff\	.
.	.	.	.	.	.	4cc\	.	4ee-\	.
.	.	.	.	2FF/	.	4b-\	.	4dd\	.
.	.	.	.	.	.	4f/	.	4cc\	.
=38	=38	=38	=38	=38	=38	=38	=38	=38	=38
!	!	!	!	!LO:TX:t=P:problem:t. 38-41 zapisane repetycją	!	!	!	!	!
4r	.	4r	.	4BB-/yy	.	4d/	.	4b-\	.
4B-/	.	4b-\	.	4BB-/yy	.	4r	.	4r	.
4B-/	.	4b-\	.	4BB-/yy	.	4r	.	4r	.
4r	.	4r	.	4BB-/yy	.	8dd\L	.	8ff\L	.
.	.	.	.	.	.	8b-\J	.	8dd\J	.
=39	=39	=39	=39	=39	=39	=39	=39	=39	=39
1B-/	.	1b-\	.	4BB-/yy	.	4ee-\	.	4gg\	.
.	.	.	.	4BB-/yy	.	4cc\	.	4ee-\	.
.	.	.	.	4BB-/yy	.	4r	.	4r	.
.	.	.	.	4BB-/yy	.	8ee-\L	.	8gg\L	.
.	.	.	.	.	.	8cc\J	.	8ee-\J	.
!	!	!	!	!	!	!	!	!LO:LB:g=original	!
=40	=40	=40	=40	=40	=40	=40	=40	=40	=40
2B-/	.	2b-\	.	4BB-/yy	.	4dd\	.	4ff\	.
.	.	.	.	4BB-/yy	.	4b-\	.	4dd\	.
4B-/	.	4b-\	.	4BB-/yy	.	4r	.	4r	.
4r	.	4r	.	4BB-/yy	.	8f/L	.	8dd\L	.
.	.	.	.	.	.	8d/J	.	8b-\J	.
=41	=41	=41	=41	=41	=41	=41	=41	=41	=41
1r	.	1r	.	2F\yy	.	4g/	.	4ee-\	.
.	.	.	.	.	.	4e-/	.	4cc\	.
.	.	.	.	2FF/yy	.	4d/	.	4b-\	.
.	.	.	.	.	.	4c/	.	4a\	.
=42	=42	=42	=42	=42	=42	=42	=42	=42	=42
2B-/	.	2b-\	.	4BB-/	.	2c/	.	2a\	.
.	.	.	.	4B-\	.	.	.	.	.
!	!	!	!	!	!	!LO:TX:b:t=42	!	!LO:TX:b:t=42	!
4B-/	.	4b-\	.	4BB-/	.	4d/	.	4b-\	.
!LO:TX:b:t=42	!	!LO:TX:b:t=42	!	!LO:TX:b:t=42	!	!LO:TX:t=P:problem:brak 4r	!	!	!
4r	.	4r	.	4r	.	4ryy	.	4r	.
!	!	!	!	!	!	!LO:LB:g=original	!	!	!
=43:|!|:	=43:|!|:	=43:|!|:	=43:|!|:	=43:|!|:	=43:|!|:	=43:|!|:	=43:|!|:	=43:|!|:	=43:|!|:
*>B	*	*>B	*	*>B	*	*>B	*	*>B	*
!	!	!	!	!	!	!	!	!	!LO:DY:rj:t=f
1BB-/	.	2b-\	.	4BB-/	.	4B-/	.	4b-\	f
.	.	.	.	4D/	.	4d/	.	4dd\	.
.	.	2b-\	.	4F/	.	4f/	.	4ff\	.
.	.	.	.	4D/	.	4d/	.	4dd\	.
!	!	!	!	!LO:LB:g=original	!	!	!	!	!
=44	=44	=44	=44	=44	=44	=44	=44	=44	=44
4BB-/	.	4b-\	.	1BB-/	.	4B-/	.	4b-\	.
4r	.	4r	.	.	.	4b-\	.	4r	.
2r	.	2r	.	.	.	4a\	.	2r	.
.	.	.	.	.	.	4g\	.	.	.
=45	=45	=45	=45	=45	=45	=45	=45	=45	=45
0r	.	0r	.	1BB-/	.	4f/	.	4r	.
.	.	.	.	.	.	4g/	.	(4bb-\	.
.	.	.	.	.	.	4f/	.	4aa\	.
.	.	.	.	.	.	4e-/	.	4gg\)	.
=46	=46	=46	=46	=46	=46	=46	=46	=46	=46
.	.	.	.	1BB-/	.	4d/	.	4ff\	.
.	.	.	.	.	.	4e-/	.	(4gg\	.
.	.	.	.	.	.	4d/	.	4ff\	.
.	.	.	.	.	.	4c/	.	4ee-\)	.
=47	=47	=47	=47	=47	=47	=47	=47	=47	=47
1BB-/	.	1b-\	.	4BB-/	.	4B-/	.	4dd\	.
.	.	.	.	4D/	.	4r	.	4b-\	.
.	.	.	.	4F/	.	2r	.	4ff\	.
.	.	.	.	4D/	.	.	.	4dd\	.
!LO:LB:g=original	!	!	!	!	!	!	!	!LO:LB:g=original	!
=48	=48	=48	=48	=48	=48	=48	=48	=48	=48
[1BB-/	.	4b-\	.	4BB-/	.	2B-/	.	4b-\	.
.	.	4r	.	4r	.	.	.	(4bb-\	.
.	.	4r	.	2r	.	2B-/	.	4aa\	.
.	.	4B-/	.	.	.	.	.	4gg\)	.
!	!	!LO:LB:g=original	!	!	!	!	!	!	!
=49	=49	=49	=49	=49	=49	=49	=49	=49	=49
1BB-/_	.	0r	.	4r	.	1B-/	.	4ff\	.
.	.	.	.	4B-\	.	.	.	(4gg\	.
.	.	.	.	4An\	.	.	.	4ff\	.
.	.	.	.	4G\	.	.	.	4ee-\)	.
=50	=50	=50	=50	=50	=50	=50	=50	=50	=50
1BB-/_	.	.	.	4F\	.	1B-/	.	4dd\	.
.	.	.	.	4G\	.	.	.	4ee-\	.
.	.	.	.	4F\	.	.	.	4dd\	.
.	.	.	.	4E-\	.	.	.	4cc\	.
=51	=51	=51	=51	=51	=51	=51	=51	=51	=51
1BB-/_	.	1f/	.	8D/L	.	1d/	.	1b-\	.
.	.	.	.	8BB-/	.	.	.	.	.
.	.	.	.	8D/	.	.	.	.	.
.	.	.	.	8F/J	.	.	.	.	.
.	.	.	.	8B-\L	.	.	.	.	.
.	.	.	.	8F\	.	.	.	.	.
.	.	.	.	8B-\	.	.	.	.	.
.	.	.	.	8d\J	.	.	.	.	.
=52	=52	=52	=52	=52	=52	=52	=52	=52	=52
1BB-/]	.	1f/	.	8f\L	.	1b-\	.	1dd\	.
.	.	.	.	8d\	.	.	.	.	.
.	.	.	.	8B-\	.	.	.	.	.
.	.	.	.	8F\J	.	.	.	.	.
!	!	!	!	!LO:LB:g=original	!	!	!	!	!
.	.	.	.	8d\L	.	.	.	.	.
.	.	.	.	8B-\	.	.	.	.	.
.	.	.	.	8F\	.	.	.	.	.
.	.	.	.	8D\J	.	.	.	.	.
=53	=53	=53	=53	=53	=53	=53	=53	=53	=53
4B-/	.	4b-\	.	4BB-/	.	8dd\L	.	8ff\L	.
.	.	.	.	.	.	8cc\	.	8ee-\	.
4r	.	4r	.	4r	.	8b-\	.	8dd\	.
.	.	.	.	.	.	8cc\J	.	8ee-\J	.
4B-/	.	4b-\	.	4B-\	.	8dd\L	.	8ff\L	.
.	.	.	.	.	.	8ff\	.	8bb-\	.
4r	.	4r	.	4r	.	8dd\	.	8ff\	.
.	.	.	.	.	.	8b-\J	.	8dd\J	.
!	!	!	!	!	!	!LO:LB:g=original	!	!	!
=54	=54	=54	=54	=54	=54	=54	=54	=54	=54
4B-/	.	4b-\	.	4BB-/	.	8dd\L	.	8ff\L	.
.	.	.	.	.	.	8cc\	.	8ee-\	.
4r	.	4r	.	4r	.	8b-\	.	8dd\	.
.	.	.	.	.	.	8f\J	.	8cc\J	.
2r	.	2r	.	8B-\L	.	4d/	.	4b-\	.
.	.	.	.	8A-X\	.	.	.	.	.
.	.	.	.	8G\	.	4r	.	4r	.
.	.	.	.	8F\J	.	.	.	.	.
=55	=55	=55	=55	=55	=55	=55	=55	=55	=55
!	!	!	!	!	!	!	!	!LO:TX:a:t=4	!
1G/	.	1e-/	.	8E-\L	.	00r	.	00r	.
.	.	.	.	8BB-\	.	.	.	.	.
.	.	.	.	8E-\	.	.	.	.	.
.	.	.	.	8G\J	.	.	.	.	.
.	.	.	.	8B-\L	.	.	.	.	.
.	.	.	.	8E-\	.	.	.	.	.
.	.	.	.	8G\	.	.	.	.	.
.	.	.	.	8B-\J	.	.	.	.	.
=56	=56	=56	=56	=56	=56	=56	=56	=56	=56
1e-/	.	1g/	.	8e-\L	.	.	.	.	.
.	.	.	.	8B-\	.	.	.	.	.
.	.	.	.	8G\	.	.	.	.	.
.	.	.	.	8E-\J	.	.	.	.	.
.	.	.	.	8B-\L	.	.	.	.	.
.	.	.	.	8G\	.	.	.	.	.
.	.	.	.	8E-\	.	.	.	.	.
.	.	.	.	8BB-\J	.	.	.	.	.
=57	=57	=57	=57	=57	=57	=57	=57	=57	=57
8g\L	.	8b-\L	.	4E-\	.	.	.	.	.
8f\	.	8a-\	.	.	.	.	.	.	.
8e-\	.	8g\	.	4r	.	.	.	.	.
8f\J	.	8a-\J	.	.	.	.	.	.	.
4g\	.	8b-\L	.	4E-\	.	.	.	.	.
.	.	8ee-\	.	.	.	.	.	.	.
8g\L	.	8b-\	.	4r	.	.	.	.	.
8e-\J	.	8g\J	.	.	.	.	.	.	.
!LO:LB:g=original	!	!	!	!	!	!	!	!	!
=58	=58	=58	=58	=58	=58	=58	=58	=58	=58
8g\L	.	8b-\L	.	4E-\	.	.	.	.	.
8f\	.	8a-\	.	.	.	.	.	.	.
8e-\	.	8g\	.	4r	.	.	.	.	.
8B-\J	.	8f\J	.	.	.	.	.	.	.
!	!	!	!	!LO:LB:g=original	!	!	!	!	!
4G/	.	4e-\	.	8E-\L	.	.	.	.	.
.	.	.	.	8F\	.	.	.	.	.
4r	.	4r	.	8E-\	.	.	.	.	.
.	.	.	.	8D\J	.	.	.	.	.
=59	=59	=59	=59	=59	=59	=59	=59	=59	=59
0r	.	0r	.	4C/	.	4g/	.	2eeX\	.
.	.	.	.	4c\	.	4g/	.	.	.
.	.	.	.	4c\	.	4g/	.	4ccc\	.
.	.	.	.	4c\	.	4g/	.	4ee\	.
=60	=60	=60	=60	=60	=60	=60	=60	=60	=60
.	.	.	.	4A-\	.	4f/	.	8ff\L	.
.	.	.	.	.	.	.	.	8eeX\	.
.	.	.	.	4A-\	.	4f/	.	8ff\	.
.	.	.	.	.	.	.	.	8gg\J	.
!	!	!	!	!	!	!	!	!LO:LB:g=original	!
.	.	.	.	4A-\	.	4f/	.	8aa-\L	.
.	.	.	.	.	.	.	.	8gg\	.
.	.	.	.	4A-\	.	4f/	.	8ff\	.
.	.	.	.	.	.	.	.	8ee-\J	.
=61	=61	=61	=61	=61	=61	=61	=61	=61	=61
1BB-/	.	1b-\	.	4A-\	.	4f/	.	2dd\	.
.	.	.	.	4A-\	.	4f/	.	.	.
.	.	.	.	4A-\	.	4f/	.	4bb-\	.
.	.	.	.	4A-\	.	4f/	.	4dd\	.
=62	=62	=62	=62	=62	=62	=62	=62	=62	=62
1E-/	.	2g\	.	4G\	.	4g/	.	8ee-\L	.
.	.	.	.	.	.	.	.	8dd\	.
.	.	.	.	4E-\	.	4g/	.	8ee-\	.
.	.	.	.	.	.	.	.	8ff\J	.
.	.	2g\	.	4E-\	.	4e-/	.	4gg\	.
.	.	.	.	4r	.	4B-/	.	4b-\	.
=63	=63	=63	=63	=63	=63	=63	=63	=63	=63
!	!	!	!	!	!LO:DY:rj:t=f	!	!	!	!
4E-/	.	4e-\	.	4E-\	f	4e-/	.	4ee-\	.
4B-/	.	4b-\	.	4B-\	.	4b-/	.	4bb-\	.
4G/	.	4g\	.	4G\	.	4g/	.	4gg\	.
4E-/	.	4e-\	.	4E-\	.	4e-/	.	4ee-\	.
=64	=64	=64	=64	=64	=64	=64	=64	=64	=64
4BB-/	.	4b-\	.	4BB-/	.	4B-/	.	4b-\	.
4r	.	4r	.	4B-\	.	4r	.	4r	.
2r	.	2r	.	4BB-/	.	2r	.	2r	.
.	.	.	.	4r	.	.	.	.	.
=65	=65	=65	=65	=65	=65	=65	=65	=65	=65
!	!	!	!	!	!	!	!LO:DY:rj:t=f	!	!
4E-/	.	4e-\	.	4E-\	.	4e-/	f	4ee-\	.
4G/	.	4g\	.	4G\	.	4b-/	.	4gg\	.
4B-/	.	4b-\	.	4B-\	.	4g/	.	4bb-\	.
4G/	.	4g\	.	4G\	.	4e-/	.	4gg\	.
!	!	!	!	!	!	!LO:LB:g=original	!	!	!
=66	=66	=66	=66	=66	=66	=66	=66	=66	=66
!	!	!	!	!	!LO:DY:rj:t=p.	!	!	!	!
4E-/	.	4e-\	.	1E-\	p	1e-/	.	4ee-\	.
4r	.	4ee-\	.	.	.	.	.	4r	.
2r	.	4dd\	.	.	.	.	.	2r	.
.	.	4cc\	.	.	.	.	.	.	.
!	!	!	!	!LO:LB:g=original	!	!	!	!	!
=67	=67	=67	=67	=67	=67	=67	=67	=67	=67
0r	.	4b-\	.	1E-\	.	1e-/	.	4r	.
.	.	4cc\	.	.	.	.	.	(4ee-\	.
.	.	4b-\	.	.	.	.	.	4dd\	.
.	.	4a-\	.	.	.	.	.	4cc\)	.
!	!	!	!	!	!	!	!	!LO:LB:g=original	!
=68	=68	=68	=68	=68	=68	=68	=68	=68	=68
.	.	4g\	.	1E-\	.	1e-/	.	4b-\	.
.	.	(4a-\	.	.	.	.	.	(4cc\	.
.	.	4g\	.	.	.	.	.	4b-\	.
.	.	4f\)	.	.	.	.	.	4a-\)	.
!LO:LB:g=original	!	!	!	!	!	!	!	!	!
=69	=69	=69	=69	=69	=69	=69	=69	=69	=69
4E-/	.	4e-\	.	4E-\	.	4e-/	.	4g/	.
4G/	.	4g\	.	4G\	.	4g/	.	4e-/	.
4B-/	.	4b-\	.	4B-\	.	4b-/	.	4b-/	.
4G/	.	4g\	.	4G\	.	4g/	.	4g/	.
!	!	!LO:LB:g=original	!	!	!	!	!	!	!
=70	=70	=70	=70	=70	=70	=70	=70	=70	=70
4E-/	.	4e-\	.	1E-\	.	1e-/	.	4e-/	.
4r	.	4r	.	.	.	.	.	(4ee-\	.
2r	.	2r	.	.	.	.	.	4dd\	.
.	.	.	.	.	.	.	.	4cc\)	.
=71	=71	=71	=71	=71	=71	=71	=71	=71	=71
0r	.	4r	.	1E-\	.	1e-/	.	4b-\	.
.	.	4ee-\	.	.	.	.	.	(4cc\	.
.	.	4dd\	.	.	.	.	.	4b-\	.
.	.	4cc\	.	.	.	.	.	4a-\)	.
=72	=72	=72	=72	=72	=72	=72	=72	=72	=72
.	.	4b-\	.	1E-\	.	1e-/	.	4g/	.
.	.	4cc\	.	.	.	.	.	(4a-/	.
.	.	4b-\	.	.	.	.	.	4g/	.
.	.	4a-\	.	.	.	.	.	4f/)	.
=73	=73	=73	=73	=73	=73	=73	=73	=73	=73
*	*	*	*	*tremolo	*	*	*	*	*
[1E-/	.	1g/	.	8G\L	.	2B-/	.	2e-/	.
.	.	.	.	8E-\	.	.	.	.	.
.	.	.	.	8G\	.	.	.	.	.
.	.	.	.	8E-\J	.	.	.	.	.
.	.	.	.	8G\L	.	2e-/	.	2g/	.
.	.	.	.	8E-\	.	.	.	.	.
.	.	.	.	8G\	.	.	.	.	.
.	.	.	.	8E-\J	.	.	.	.	.
=74	=74	=74	=74	=74	=74	=74	=74	=74	=74
1E-/_	.	1g/	.	8G\L	.	2g/	.	2b-\	.
.	.	.	.	8E-\	.	.	.	.	.
.	.	.	.	8G\	.	.	.	.	.
.	.	.	.	8E-\J	.	.	.	.	.
.	.	.	.	8G\L	.	2b-\	.	2dd-X\	.
.	.	.	.	8E-\	.	.	.	.	.
.	.	.	.	8G\	.	.	.	.	.
.	.	.	.	8E-\J	.	.	.	.	.
=75	=75	=75	=75	=75	=75	=75	=75	=75	=75
1E-/_	.	1e-/	.	8A-\L	.	4a-\	.	4cc\	.
.	.	.	.	8E-\	.	.	.	.	.
.	.	.	.	8A-\	.	4cc\	.	4ee-\	.
.	.	.	.	8E-\J	.	.	.	.	.
.	.	.	.	8A-\L	.	4cc\	.	4aa-\	.
.	.	.	.	8E-\	.	.	.	.	.
.	.	.	.	8A-\	.	4a-\	.	4cc\	.
.	.	.	.	8E-\J	.	.	.	.	.
=76	=76	=76	=76	=76	=76	=76	=76	=76	=76
*	*	*	*	*rep	*	*	*	*	*
1E-/]	.	1e-/	.	8A-\L	.	4a-\	.	8ee-\L	.
.	.	.	.	8E-\	.	.	.	8dd-X\	.
.	.	.	.	8A-\	.	4a-\	.	8cc\	.
.	.	.	.	8E-\J	.	.	.	8b-\J	.
.	.	.	.	8A-\L	.	4a-\	.	4a-\	.
.	.	.	.	8E-\	.	.	.	.	.
.	.	.	.	8A-\	.	4r	.	4r	.
.	.	.	.	8E-\J	.	.	.	.	.
*	*	*	*	*Xrep	*	*	*	*	*
*	*	*	*	*Xtremolo	*	*	*	*	*
!	!	!	!	!LO:LB:g=original	!	!	!	!LO:LB:g=original	!
=77	=77	=77	=77	=77	=77	=77	=77	=77	=77
*	*	*	*	*	*	*tremolo	*	*	*
1f/	.	1f/	.	2F\	.	8A/L	.	2f/	.
.	.	.	.	.	.	8F/	.	.	.
.	.	.	.	.	.	8A/	.	.	.
.	.	.	.	.	.	8F/J	.	.	.
.	.	.	.	2F\	.	8A/L	.	2a\	.
.	.	.	.	.	.	8F/	.	.	.
.	.	.	.	.	.	8A/	.	.	.
.	.	.	.	.	.	8F/J	.	.	.
!	!	!	!	!	!	!LO:LB:g=original	!	!	!
=78	=78	=78	=78	=78	=78	=78	=78	=78	=78
1f/	.	1f/	.	2An\	.	8A/L	.	2cc\	.
.	.	.	.	.	.	8F/	.	.	.
.	.	.	.	.	.	8A/	.	.	.
.	.	.	.	.	.	8F/J	.	.	.
.	.	.	.	2c\	.	8A/L	.	2ee-\	.
.	.	.	.	.	.	8F/	.	.	.
.	.	.	.	.	.	8A/	.	.	.
.	.	.	.	.	.	8F/J	.	.	.
=79	=79	=79	=79	=79	=79	=79	=79	=79	=79
1B-/	.	1b-\	.	4B-\	.	8B-/L	.	4dd\	.
.	.	.	.	.	.	8F/	.	.	.
.	.	.	.	4d\	.	8B-/	.	4ff\	.
.	.	.	.	.	.	8F/J	.	.	.
.	.	.	.	4d\	.	8B-/L	.	4bb-\	.
.	.	.	.	.	.	8F/	.	.	.
.	.	.	.	4F\	.	8B-/	.	4ff\	.
.	.	.	.	.	.	8F/J	.	.	.
=80	=80	=80	=80	=80	=80	=80	=80	=80	=80
4B-/	.	4b-\	.	4BB-/	.	8B-/L	.	8ff\L	.
.	.	.	.	.	.	8F/	.	8ee-\	.
4BB-/	.	4b-\	.	4B-\	.	8B-/	.	8dd\	.
.	.	.	.	.	.	8F/J	.	8cc\J	.
*	*	*	*	*	*	*Xtremolo	*	*	*
4BB-/	.	4b-\	.	4BB-/	.	4B-/	.	4b-\	.
4r	.	4r	.	4r	.	4r	.	4r	.
!LO:LB:g=original	!	!LO:LB:g=original	!	!	!	!	!	!	!
=81	=81	=81	=81	=81	=81	=81	=81	=81	=81
*	*	*	*	*tremolo	*	*	*	*	*
00r	.	00r	.	8G\L	.	4e-/	.	2bb-\	.
.	.	.	.	8B-\	.	.	.	.	.
.	.	.	.	8G\	.	4r	.	.	.
.	.	.	.	8B-\J	.	.	.	.	.
.	.	.	.	8G\L	.	4e-/	.	8aa-X\L	.
.	.	.	.	8B-\	.	.	.	8gg\	.
.	.	.	.	8G\	.	4r	.	8ff\	.
.	.	.	.	8B-\J	.	.	.	8ee-\J	.
=82	=82	=82	=82	=82	=82	=82	=82	=82	=82
.	.	.	.	8A-\L	.	4f/	.	4ee-\	.
.	.	.	.	8B-\	.	.	.	.	.
.	.	.	.	8A-\	.	4r	.	4dd\	.
.	.	.	.	8B-\J	.	.	.	.	.
.	.	.	.	8A-\L	.	4f/	.	4dd\	.
.	.	.	.	8B-\	.	.	.	.	.
.	.	.	.	8A-\	.	4r	.	4r	.
.	.	.	.	8B-\J	.	.	.	.	.
=83	=83	=83	=83	=83	=83	=83	=83	=83	=83
.	.	.	.	8F\L	.	4d/	.	8dd\L	.
.	.	.	.	8B-\	.	.	.	8ee-\	.
.	.	.	.	8F\	.	4r	.	8ff\	.
.	.	.	.	8B-\J	.	.	.	8gg\J	.
.	.	.	.	8F\L	.	4d/	.	8aa-\L	.
.	.	.	.	8B-\	.	.	.	8ff\	.
.	.	.	.	8F\	.	4r	.	8ccc\	.
.	.	.	.	8B-\J	.	.	.	8aa-\J	.
!	!	!	!	!LO:PB:g=original	!	!LO:LB:g=original	!	!	!
=84	=84	=84	=84	=84	=84	=84	=84	=84	=84
.	.	.	.	8G\L	.	4e-/	.	4ff#X\	.
.	.	.	.	8B-\	.	.	.	.	.
.	.	.	.	8G\	.	4r	.	4gg\	.
.	.	.	.	8B-\J	.	.	.	.	.
.	.	.	.	8G\L	.	4e-/	.	4gg\	.
.	.	.	.	8B-\	.	.	.	.	.
.	.	.	.	8G\	.	4r	.	4r	.
.	.	.	.	8B-\J	.	.	.	.	.
*	*	*	*	*Xtremolo	*	*	*	*	*
=85	=85	=85	=85	=85	=85	=85	=85	=85	=85
*	*	*	*	*	*	*tremolo	*	*	*
!	!	!	!	!	!	!	!	!LO:TX:t=P:problem:t. 85-88 zapisane repetycją	!
00r	.	00r	.	4E-\	.	8G/L	.	2bb-\yy	.
.	.	.	.	.	.	8B-/	.	.	.
.	.	.	.	4r	.	8G/	.	.	.
.	.	.	.	.	.	8B-/J	.	.	.
.	.	.	.	4E-\	.	8G/L	.	8aa-X\Lyy	.
.	.	.	.	.	.	8B-/	.	8gg\yy	.
.	.	.	.	4r	.	8G/	.	8ff\yy	.
.	.	.	.	.	.	8B-/J	.	8ee-\Jyy	.
=86	=86	=86	=86	=86	=86	=86	=86	=86	=86
.	.	.	.	4F\	.	8A-X/L	.	4ee-\yy	.
.	.	.	.	.	.	8c/	.	.	.
.	.	.	.	4r	.	8A-/	.	4dd\yy	.
.	.	.	.	.	.	8c/J	.	.	.
.	.	.	.	4F\	.	8A-/L	.	4dd\yy	.
.	.	.	.	.	.	8c/	.	.	.
.	.	.	.	4r	.	8A-/	.	4ryy	.
.	.	.	.	.	.	8c/J	.	.	.
=87	=87	=87	=87	=87	=87	=87	=87	=87	=87
.	.	.	.	4D\	.	8F/L	.	8dd\Lyy	.
.	.	.	.	.	.	8B-/	.	8ee-\yy	.
.	.	.	.	4r	.	8F/	.	8ff\yy	.
.	.	.	.	.	.	8B-/J	.	8gg\Jyy	.
.	.	.	.	4D\	.	8F/L	.	8aa-\Lyy	.
.	.	.	.	.	.	8B-/	.	8ff\yy	.
.	.	.	.	4r	.	8F/	.	8ccc\yy	.
.	.	.	.	.	.	8B-/J	.	8aa-\Jyy	.
=88	=88	=88	=88	=88	=88	=88	=88	=88	=88
.	.	.	.	4E-\	.	8G/L	.	4ff#X\yy	.
.	.	.	.	.	.	8B-/	.	.	.
.	.	.	.	4r	.	8G/	.	4gg\yy	.
.	.	.	.	.	.	8B-/J	.	.	.
.	.	.	.	4E-\	.	8G/L	.	4gg\yy	.
.	.	.	.	.	.	8B-/	.	.	.
.	.	.	.	4r	.	8G/	.	4ryy	.
.	.	.	.	.	.	8B-/J	.	.	.
*	*	*	*	*	*	*Xtremolo	*	*	*
!	!	!	!	!	!	!	!	!LO:LB:g=original	!
=89	=89	=89	=89	=89	=89	=89	=89	=89	=89
1E-/	.	1e-/	.	4E-\	.	2g/	.	2b-\	.
.	.	.	.	4E-\	.	.	.	.	.
.	.	.	.	4G\	.	4g/	.	8ee-\L	.
.	.	.	.	.	.	.	.	8dd\	.
.	.	.	.	4E-\	.	4g/	.	8ee-\	.
.	.	.	.	.	.	.	.	8b-\J	.
!	!	!	!	!	!	!LO:PB:g=original	!	!	!
=90	=90	=90	=90	=90	=90	=90	=90	=90	=90
4E-/	.	4e-\	.	4E-\	.	4a-/	.	4cc\	.
4r	.	4r	.	4r	.	4a-/	.	4dd\	.
2r	.	2r	.	4r	.	4g/	.	4ee-\	.
!	!	!	!	!LO:LB:g=original	!	!	!	!	!
.	.	.	.	4BB-/	.	8r	.	8r	.
!	!	!	!	!	!	!LO:SIC:v:s=8gg\	!	!	!
.	.	.	.	.	.	8ff\	.	8bb-\	.
=91	=91	=91	=91	=91	=91	=91	=91	=91	=91
!	!	!	!	!	!	!LO:SIC:v:s=8aa-\L	!	!	!
4E-/	.	4e-\	.	4E-\	.	8gg\L	.	8ccc\L	.
.	.	.	.	.	.	8ee-\	.	8gg\	.
4r	.	4r	.	4E-\	.	8aa-\	.	8ccc\	.
.	.	.	.	.	.	8gg\J	.	8bb-\J	.
2BB-/	.	2b-\	.	4E-\	.	8gg\L	.	8bb-\L	.
.	.	.	.	.	.	8ff\	.	8aa-\	.
.	.	.	.	4E-\	.	8ee-\	.	8gg\	.
.	.	.	.	.	.	8b-\J	.	8ff\J	.
=92	=92	=92	=92	=92	=92	=92	=92	=92	=92
4r	.	4r	.	4E-\	.	4g/	.	4ee-\	.
4E-/	.	4e-\	.	4E-\	.	4r	.	4r	.
!	!	!	!	!LO:N:vis=4.	!	!	!	!	!
4E-/	.	4e-\	.	4E-\	.	4r	.	4r	.
!	!	!	!	!LO:TX:t=P:problem:wykreślony dźwięk	!	!	!	!	!
4r	.	4r	.	4E-\	.	8g/L	.	8ee-\L	.
.	.	.	.	.	.	8e-/J	.	8cc\J	.
=93	=93	=93	=93	=93	=93	=93	=93	=93	=93
!	!	!	!	!	!	!LO:SIC:v:s=4g/	!	!	!
[1E-/	.	1e-/	.	4E-\	.	4a-/	.	4b-\	.
!	!	!	!	!	!	!LO:SIC:v:s=4e-/	!	!	!
.	.	.	.	4E-\	.	4f/	.	4g\	.
.	.	.	.	4E-\	.	4r	.	4r	.
.	.	.	.	4E-\	.	8g/L	.	8ee-\L	.
.	.	.	.	.	.	8a-/J	.	8cc\J	.
=94	=94	=94	=94	=94	=94	=94	=94	=94	=94
!	!	!	!	!	!	!	!	!LO:TX:t=P:problem:t. 94 zapisany repetycją	!
!	!	!	!	!	!	!	!	!LO:TX:b:t=repete	!
2E-/]	.	2e-\	.	2B-\	.	4g/	.	4b-\yy	.
.	.	.	.	.	.	4e-/	.	4g\yy	.
4E-/	.	4e-\	.	2BB-/	.	4r	.	4ryy	.
4r	.	4r	.	.	.	8g/L	.	8ee-\Lyy	.
.	.	.	.	.	.	8a-/J	.	8cc\Jyy	.
=95	=95	=95	=95	=95	=95	=95	=95	=95	=95
1r	.	1r	.	4E-\	.	4g/	.	4b-\	.
.	.	.	.	4E-\	.	4f/	.	4a-\	.
.	.	.	.	4E-\	.	4e-/	.	4g\	.
.	.	.	.	4E-\	.	4B-/	.	4f\	.
=96	=96	=96	=96	=96	=96	=96	=96	=96	=96
4r	.	4r	.	4E-\	.	4G/	.	4e-/	.
4E-/	.	4e-\	.	4E-\	.	4r	.	4r	.
4E-/	.	4e-\	.	4E-\	.	4r	.	4r	.
!	!	!	!	!	!	!LO:LB:g=original	!	!	!
4r	.	4r	.	4E-\	.	8g/L	.	4b-\	.
.	.	.	.	.	.	8e-/J	.	.	.
!LO:LB:g=original	!	!LO:LB:g=original	!	!	!	!	!	!	!
=97	=97	=97	=97	=97	=97	=97	=97	=97	=97
1E-/	.	1e-/	.	4E-\	.	4a-/	.	4cc\	.
.	.	.	.	4E-\	.	4f/	.	4a-\	.
.	.	.	.	4E-\	.	4r	.	4r	.
.	.	.	.	4E-\	.	8a-/L	.	4cc\	.
.	.	.	.	.	.	8f/J	.	.	.
=98	=98	=98	=98	=98	=98	=98	=98	=98	=98
!	!	!	!	!LO:TX:t=P:problem:t. 98 zapisany repetycją	!	!	!	!	!
2E-/	.	2e-\	.	4E-\yy	.	4g/	.	4b-\	.
.	.	.	.	4E-\yy	.	4e-/	.	4g\	.
4E-/	.	4e-\	.	4E-\yy	.	4r	.	4r	.
4r	.	4r	.	4E-\yy	.	8b-\L	.	8gg\L	.
.	.	.	.	.	.	8g\J	.	8ee-\J	.
!	!	!	!	!LO:LB:g=original	!	!	!	!	!
=99	=99	=99	=99	=99	=99	=99	=99	=99	=99
1r	.	1r	.	2B-\	.	4cc\	.	4aa-\	.
.	.	.	.	.	.	4a-\	.	4ff\	.
.	.	.	.	2BB-/	.	4g\	.	4ee-\	.
.	.	.	.	.	.	4f/	.	4dd\	.
=100	=100	=100	=100	=100	=100	=100	=100	=100	=100
2E-/	.	2e-\	.	4E-\	.	2f/	.	2dd\	.
.	.	.	.	4BB-/	.	.	.	.	.
!	!	!	!	!	!	!LO:TX:b:t=59	!	!LO:TX:b:t=58	!
4E-/	.	4e-\	.	4EE-/	.	4g/	.	4ee-\	.
!LO:TX:b:t=58	!	!LO:TX:b:t=58	!	!LO:TX:b:t=58	!	!	!	!	!
4r	.	4r	.	4r	.	4ryy	.	4ryy	.
=:!|	=:!|	=:!|	=:!|	=:!|	=:!|	=:!|	=:!|	=:!|	=:!|
*-	*-	*-	*-	*-	*-	*-	*-	*-	*-
!!!system-decoration: [(s1,s2,s3)][(s4,s5)]
!!!ENC: Katarzyna Serwa
!!!END: 2021-06-16
!!!RDF**kern: | = vertical stroke
!!!RDF**dynam: f = fo
!!!RDF**dynam: < = cresc
!!!EED: Andrzej Borzym
!!!EST: 2021-06-21
!!!RDF**kern: > = above
!!!RDF**kern: < = below
